src/assets/img/rutas_blob.svg

<svg fill="none" height="254" viewBox="0 0 260 254" width="260" xmlns="http://www.w3.org/2000/svg"><path d="m147.913 111.142-32.127-23.7578-33.2614 23.7578-33.2996-24.6245 33.8591-25.7445 31.6209 25.675 33.768-25.675 32.74 26.5838zm65.851-56.5411c-19.247-23.3934-29.25-35.2722-47.846-44.193-8.652-4.15114-30.888-13.31858-58.802-9.495165-19.9409 2.731395-33.8154 10.866365-44.5581 17.164865-9.4144 5.5199-23.9858 14.0631-36.5222 29.9494-17.96371 22.764-21.06783 47.069-24.10542 70.854-1.546744 12.109-4.05033 33.134 1.46108 59.533 3.67761 17.613 6.82454 32.687 17.89624 46.019 18.6925 22.51 47.8773 25.484 73.7768 28.122 45.7316 4.66 80.5756-9.088 96.7856-15.704 24.466-9.988 39.587-16.16 51.862-32.505 23.915-31.846 14.684-72.55 12.418-82.542-5.106-22.5116-17.799-37.3438-42.366-67.2031z" fill="#2c2522"/><path d="m82.5239 79.5224c-3.5546 0-6.436 2.8815-6.436 6.4361s2.8814 6.436 6.436 6.436 6.4361-2.8814 6.4361-6.436-2.8815-6.4361-6.4361-6.4361z" fill="#000"/><path d="m154.349 85.956c0 3.5545-2.881 6.436-6.436 6.436s-6.436-2.8815-6.436-6.436c0-3.5546 2.881-6.4361 6.436-6.4361s6.436 2.8815 6.436 6.4361zm-71.8248 6.436c-3.5546 0-6.436-2.8815-6.436-6.436 0-3.5546 2.8814-6.4361 6.436-6.4361s6.4361 2.8815 6.4361 6.4361c0 3.5545-2.8815 6.436-6.4361 6.436zm32.1798-5.9458-31.6203-25.6749-33.8591 25.7442 33.2996 24.6255 33.2618-23.7586 32.127 23.7586 33.3-23.7859-32.741-26.5838z" fill="#fafafa"/><path d="m141.477 85.9585c0 3.5546 2.881 6.436 6.436 6.436 3.554 0 6.436-2.8814 6.436-6.436s-2.882-6.4361-6.436-6.4361c-3.555 0-6.436 2.8815-6.436 6.4361z" fill="#000"/></svg>

<svg width="260" height="254" viewBox="0 0 260 254" fill="none" xmlns="http://www.w3.org/2000/svg">
<path d="M147.913 111.142L115.786 87.3842L82.5246 111.142L49.225 86.5175L83.0841 60.773L114.705 86.448L148.473 60.773L181.213 87.3568L147.913 111.142ZM213.764 54.6009C194.517 31.2075 184.514 19.3287 165.918 10.4079C157.266 6.25676 135.03 -2.91068 107.116 0.912735C87.1751 3.64413 73.3006 11.7791 62.5579 18.0776C53.1435 23.5975 38.5721 32.1407 26.0357 48.027C8.07199 70.791 4.96787 95.096 1.93028 118.881C0.383536 130.99 -2.12005 152.015 3.39136 178.414C7.06897 196.027 10.2159 211.101 21.2876 224.433C39.9801 246.943 69.1649 249.917 95.0644 252.555C140.796 257.215 175.64 243.467 191.85 236.851C216.316 226.863 231.437 220.691 243.712 204.346C267.627 172.5 258.396 131.796 256.13 121.804C251.024 99.2924 238.331 84.4602 213.764 54.6009Z" fill="#2C2522"/>
<path d="M82.5239 79.5224C78.9693 79.5224 76.0879 82.4039 76.0879 85.9585C76.0879 89.5131 78.9693 92.3945 82.5239 92.3945C86.0785 92.3945 88.96 89.5131 88.96 85.9585C88.96 82.4039 86.0785 79.5224 82.5239 79.5224Z" fill="black"/>
<path d="M154.349 85.956C154.349 89.5105 151.468 92.392 147.913 92.392C144.358 92.392 141.477 89.5105 141.477 85.956C141.477 82.4014 144.358 79.5199 147.913 79.5199C151.468 79.5199 154.349 82.4014 154.349 85.956ZM82.5242 92.392C78.9696 92.392 76.0882 89.5105 76.0882 85.956C76.0882 82.4014 78.9696 79.5199 82.5242 79.5199C86.0788 79.5199 88.9603 82.4014 88.9603 85.956C88.9603 89.5105 86.0788 92.392 82.5242 92.392ZM114.704 86.4462L83.0837 60.7713L49.2246 86.5155L82.5242 111.141L115.786 87.3824L147.913 111.141L181.213 87.3551L148.472 60.7713L114.704 86.4462Z" fill="#FAFAFA"/>
<path d="M141.477 85.9585C141.477 89.5131 144.358 92.3945 147.913 92.3945C151.467 92.3945 154.349 89.5131 154.349 85.9585C154.349 82.4039 151.467 79.5224 147.913 79.5224C144.358 79.5224 141.477 82.4039 141.477 85.9585Z" fill="black"/>
</svg>
